icon/cg/girl.svg

<svg viewBox="0 0 24 24" fill="none" xmlns="http://www.w3.org/2000/svg" height="1em" width="1em">
  <path d="M10 12C10 12.5523 9.55228 13 9 13C8.44772 13 8 12.5523 8 12C8 11.4477 8.44772 11 9 11C9.55228 11 10 11.4477 10 12Z" fill="currentColor"/>
  <path d="M15 13C15.5523 13 16 12.5523 16 12C16 11.4477 15.5523 11 15 11C14.4477 11 14 11.4477 14 12C14 12.5523 14.4477 13 15 13Z" fill="currentColor"/>
  <path fill-rule="evenodd" clip-rule="evenodd" d="M12.0244 2.00003L12 2C6.47715 2 2 6.47715 2 12C2 17.5228 6.47715 22 12 22C17.5228 22 22 17.5228 22 12C22 6.74235 17.9425 2.43237 12.788 2.03059L12.7886 2.0282C12.5329 2.00891 12.278 1.99961 12.0244 2.00003ZM12 20C16.4183 20 20 16.4183 20 12C20 11.3014 19.9105 10.6237 19.7422 9.97775C16.1597 10.2313 12.7359 8.52461 10.7605 5.60246C9.31322 7.07886 7.2982 7.99666 5.06879 8.00253C4.38902 9.17866 4 10.5439 4 12C4 16.4183 7.58172 20 12 20ZM11.9785 4.00003L12.0236 4.00003L12 4L11.9785 4.00003Z" fill="currentColor"/>
</svg>

<svg width="24" height="24" fill="none" xmlns="http://www.w3.org/2000/svg"><path d="M10 12a1 1 0 1 1-2 0 1 1 0 0 1 2 0ZM15 13a1 1 0 1 0 0-2 1 1 0 0 0 0 2Z" fill="currentColor"/><path fill-rule="evenodd" clip-rule="evenodd" d="M12.024 2H12C6.477 2 2 6.477 2 12s4.477 10 10 10 10-4.477 10-10c0-5.258-4.058-9.568-9.212-9.97v-.002A9.94 9.94 0 0 0 12.025 2ZM12 20a8 8 0 0 0 7.742-10.022 10.016 10.016 0 0 1-8.982-4.376 7.976 7.976 0 0 1-5.691 2.4A8 8 0 0 0 12 20Zm-.021-16h.045-.045Z" fill="currentColor"/></svg>
